shader diffuse_closure
[[
    string as_node_name = "asDiffuseClosure",
    string as_category = "shader"
]]
(
    color in_color = color(0)
    [[
        string label = "Input Color"
    ]],
    output closure color out_color = 0
    [[
        string label = "Diffuse Shaded Output"
    ]]
)
{
    out_color = in_color * diffuse(Ng);
}
