surface effect_closure
[[
    string as_node_name = "asEffectClosure",
    string as_category = "surface"
]]
(
    color in_color = 0
    [[
        string label = "Final Pixel Color"
    ]]
)
{
    Ci = in_color * emission();
}
