shader uv_to_color
[[
    string as_node_name = "asUV2Color",
    string as_category = "shader"
]]
(
    output color out_color = 0
    [[
        string label = "Output"
    ]]
)
{
    out_color = color(u, v, 0);
}
